!!!ONB: MCCC : ILB0173_02 : Extracted Monophonic Melody
!!!COM: Beethoven, Ludwig van
!!!OPR: Piano Sonata No.12
!!!OMV: 2
!!!SCT: Op.26
!!!ODT: 1800///
**kern
*thru
*staff1
*Ipiano
*>A
*clefG2
*k[b-e-a-d-]
*A-:
*M3/4
*MM220
8a-
8b-
=1
2cc
4dd
=2
[2.ee-
=3
4ee-]
4ff
4dd
=4
4ee-
4re
8dd-
8ee-
=5
2ff
4gg
=6
[2.aa-
=7
4aa-]
4bb-
4gg
=8
4aa-
4r
8a-
8b-
=9
4cc
4dd-
4dd
=10
[2.ee-
=11
4ee-]
4ff
4dd
=12
4ee-
4re
8dd-
8ee-
=13
4ff
4gg-
4gg
=14
2.aa-[
=15
4aa-]
4bb-
4gg
=16
4aa-
4r
*>B
8c
8d-
=17
2e-
4f
=18
4g-
4r
4g-
=19
4cc
4ee-
4gg-[
=20
4gg-]
4ff
8d
8e-
=21
2f
4g
=22
4a-
4r
4a-
=23
4dd
4ff
4aa-[
=24
4aa-]
4gg
8e
8f
=25
2g
4a-
=26
4b-
4r
8e
8f
=27
4g
8e
8f
8g
8a-
=28
4b-
8g
8a-
8b-
8cc
=29
4dd-
4r
4b-
=30
4g
4r
4b-
=31
4dd-
4r
4b-
=32
4g
4r
4b-
=33
2dd-
4cc
=34
2dd-
4cc
=35
2dd-
4cc
=36
2dd-
4cc
=37
2dd-
4cc
=38
2dd-
4cc
=39
2dd-
4cc
=40
2dd-
4cc
=41
4dd-
4r
4r
=42
4cc
4r
4r
=43
4cc
4r
4r
=44
4cc
4r
4r
=45
8aa-
8gg
8aa-
8ccc
8bb-
8aa-
=46
8gg
8ff
8ee-
8dd
8cc
8b-
=47
8a-
8g
8a-
8cc
8b-
8a-
=48
8g
8e-
8g
8a-
8b-
8cc
=49
8dd-
8cc
8dd-
8ff
8ee-
8dd-
=50
8cc
8b-
8a-
8g
8f
8e-
=51
8d-
8c
8d-
8f
8e-
8d-
=52
4c
4r
8a-
8b-
=53
2cc
4dd
=54
4ee-
4r
[4ee
=55
4ee]
4ff
4dd
=56
4ee-
4r
8dd-
8ee-
=57
2ff
4gg
=58
4aa-
4r
[4aa
=59
4aa]
4bb-
4gg
=60
4aa-
4r
[4ccc
=61
4ccc]
4ddd-
4bb-
=62
4ccc
4r
[4aa
=63
4aa]
4bb-
4gg
=64
4aa-
4r
4bb-
=65
4ccc
4r
4gg
=66
4aa-
4r
4g
=67
4a-
4r
*>B
8c
8d-
=68
2e-
4f
=69
4g-
4r
4g-
=70
4cc
4ee-
4gg-[
=71
4gg-]
4ff
8d
8e-
=72
2f
4g
=73
4a-
4r
4a-
=74
4dd
4ff
4aa-[
=75
4aa-]
4gg
8e
8f
=76
2g
4a-
=77
4b-
4r
8e
8f
=78
4g
8e
8f
8g
8a-
=79
4b-
8g
8a-
8b-
8cc
=80
4dd-
4r
4b-
=81
4g
4r
4b-
=82
4dd-
4r
4b-
=83
4g
4r
4b-
=84
2dd-
4cc
=85
2dd-
4cc
=86
2dd-
4cc
=87
2dd-
4cc
=88
2dd-
4cc
=89
2dd-
4cc
=90
2dd-
4cc
=91
2dd-
4cc
=92
4dd-
4r
4r
=93
4cc
4r
4r
=94
4cc
4r
4r
=95
4cc
4r
4r
=96
8aa-
8gg
8aa-
8ccc
8bb-
8aa-
=97
8gg
8ff
8ee-
8dd
8cc
8b-
=98
8a-
8g
8a-
8cc
8b-
8a-
=99
8g
8e-
8g
8a-
8b-
8cc
=100
8dd-
8cc
8dd-
8ff
8ee-
8dd-
=101
8cc
8b-
8a-
8g
8f
8e-
=102
8d-
8c
8d-
8f
8e-
8d-
=103
4c
4r
8a-
8b-
=104
2cc
4dd
=105
4ee-
4r
[4ee
=106
4ee]
4ff
4dd
=107
4ee-
4r
8dd-
8ee-
=108
2ff
4gg
=109
4aa-
4r
[4aa
=110
4aa]
4bb-
4gg
=111
4aa-
4r
[4ccc
=112
4ccc]
4ddd-
4bb-
=113
4ccc
4r
[4aa
=114
4aa]
4bb-
4gg
=115
4aa-
4r
4bb-
=116
4ccc
4r
4gg
=117
4aa-
4r
4g
=118
4a-
4r
*>C
*k[b-e-a-d-g-]
*M3/4
4r
=119
2f
4r
=120
2e-
4r
=121
2g-
4r
=122
2f
4d-
=123
2a-
4d-
=124
2b-
4e-
=125
2e-
4e-
=126
4e-
4r
*>C
4r
=127
2f
4r
=128
2e-
4r
=129
2g-
4r
=130
2f
4d-
=131
2a-
4d-
=132
2b-
4e-
=133
2e-
4e-
=134
4e-
4r
*>D
4a-
=135
2cc
4a-
=136
2dd-
4g
=137
2ee-
4a-
=138
2ff
4a-
=139
2ff
4dd-
=140
2gg-
4cc
=141
2aa-
4dd-
=142
2bb-
4dd-
=143
2bb-
4dd-
=144
2ccc-
4dd-
=145
2aa
4dd-
=146
2bb-
4dd-
=147
2.ff-
=148
2.ff[
=149
4ff]
4gg-
4ee-
=150
*>D1
4dd-
4r
*>D
4a-
=151
2cc
4a-
=152
2dd-
4g
=153
2ee-
4a-
=154
2ff
4a-
=155
2ff
4dd-
=156
2gg-
4cc
=157
2aa-
4dd-
=158
2bb-
4dd-
=159
2bb-
4dd-
=160
2ccc-
4dd-
=161
2aa
4dd-
=162
2bb-
4dd-
=163
2.ff-
=164
2.ff[
=165
4ff]
4gg-
4ee-
=166
*>D2
4dd-
4r
4r
=167
*>E
4r
[2dd-
=168
4dd-]
4cc
4r
=169
4r
[2aa-
=170
4aa-]
4gg
*>A
*k[b-e-a-d-]
8a-
8b-
=171
2cc
4dd
=172
[2.ee-
=173
4ee-]
4ff
4dd
=174
4ee-
4re
8dd-
8ee-
=175
2ff
4gg
=176
[2.aa-
=177
4aa-]
4bb-
4gg
=178
4aa-
4r
8a-
8b-
=179
4cc
4dd-
4dd
=180
[2.ee-
=181
4ee-]
4ff
4dd
=182
4ee-
4re
8dd-
8ee-
=183
4ff
4gg-
4gg
=184
2.aa-[
=185
4aa-]
4bb-
4gg
=186
4aa-
4r
*>B
8c
8d-
=187
2e-
4f
=188
4g-
4r
4g-
=189
4cc
4ee-
4gg-[
=190
4gg-]
4ff
8d
8e-
=191
2f
4g
=192
4a-
4r
4a-
=193
4dd
4ff
4aa-[
=194
4aa-]
4gg
8e
8f
=195
2g
4a-
=196
4b-
4r
8e
8f
=197
4g
8e
8f
8g
8a-
=198
4b-
8g
8a-
8b-
8cc
=199
4dd-
4r
4b-
=200
4g
4r
4b-
=201
4dd-
4r
4b-
=202
4g
4r
4b-
=203
2dd-
4cc
=204
2dd-
4cc
=205
2dd-
4cc
=206
2dd-
4cc
=207
2dd-
4cc
=208
2dd-
4cc
=209
2dd-
4cc
=210
2dd-
4cc
=211
4dd-
4r
4r
=212
4cc
4r
4r
=213
4cc
4r
4r
=214
4cc
4r
4r
=215
8aa-
8gg
8aa-
8ccc
8bb-
8aa-
=216
8gg
8ff
8ee-
8dd
8cc
8b-
=217
8a-
8g
8a-
8cc
8b-
8a-
=218
8g
8e-
8g
8a-
8b-
8cc
=219
8dd-
8cc
8dd-
8ff
8ee-
8dd-
=220
8cc
8b-
8a-
8g
8f
8e-
=221
8d-
8c
8d-
8f
8e-
8d-
=222
4c
4r
8a-
8b-
=223
2cc
4dd
=224
4ee-
4r
[4ee
=225
4ee]
4ff
4dd
=226
4ee-
4r
8dd-
8ee-
=227
2ff
4gg
=228
4aa-
4r
[4aa
=229
4aa]
4bb-
4gg
=230
4aa-
4r
[4ccc
=231
4ccc]
4ddd-
4bb-
=232
4ccc
4r
[4aa
=233
4aa]
4bb-
4gg
=234
4aa-
4r
4bb-
=235
4ccc
4r
4gg
=236
4aa-
4r
4g
=237
4a-
4r
==
*-
